src/assets/icons/globe.svg

<?xml version="1.0" encoding="UTF-8" standalone="no"?>
<svg width="26px" height="26px" viewBox="0 0 26 26" version="1.1" xmlns="http://www.w3.org/2000/svg" xmlns:xlink="http://www.w3.org/1999/xlink" xmlns:sketch="http://www.bohemiancoding.com/sketch/ns">
    <!-- Generator: Sketch 3.3.3 (12072) - http://www.bohemiancoding.com/sketch -->
    <title>Slice 1 Copy 4</title>
    <desc>Created with Sketch.</desc>
    <defs></defs>
    <g id="Page-1" stroke-width="1" fill-rule="evenodd" sketch:type="MSPage">
        <g id="globe" sketch:type="MSLayerGroup">
            <path d="M25,13.0002759 C25,6.37281317 19.6277386,1 13.0002759,1 C6.37281317,1 1,6.37281317 1,13.0002759 C1,19.6277386 6.37281317,25 13.0002759,25 C19.6277386,25 25,19.6277386 25,13.0002759 L25,13.0002759 Z M18.4420561,13.5415297 C18.3443987,14.9843215 17.9190096,16.4226994 17.1675441,17.8505943 C15.8831008,17.580795 14.6703832,17.452792 13.5558748,17.4180326 L13.5558748,13.5415297 L18.4420561,13.5415297 L18.4420561,13.5415297 Z M13.5558748,12.4292283 L13.5558748,8.55217361 C14.6913492,8.51686246 15.9283432,8.38499736 17.2398216,8.10416331 C17.8848019,9.35770937 18.3675717,10.8043633 18.4519874,12.3977793 C18.4525391,12.4082623 18.4525391,12.4187453 18.4530909,12.4292283 L13.5558748,12.4292283 L13.5558748,12.4292283 Z M16.5782892,18.8652383 C15.8058576,20.0790593 14.7983862,21.2840525 13.5558748,22.475804 L13.5558748,18.5314375 C14.5076209,18.5612313 15.5195062,18.6633026 16.5782892,18.8652383 L16.5782892,18.8652383 Z M17.7286604,19.1206924 C18.5049541,19.3176625 19.3027656,19.5742201 20.1165774,19.8920205 C18.7278558,21.3254328 16.9120899,22.341732 14.8756293,22.7334651 C16.0425527,21.545024 16.9948505,20.3394791 17.7286604,19.1206924 L17.7286604,19.1206924 Z M13.5558748,3.49550564 C14.2659601,4.10903699 15.5724729,5.36092784 16.6599462,7.08841583 C15.559783,7.30304145 14.5192073,7.40787145 13.5558748,7.43987218 L13.5558748,3.49550564 L13.5558748,3.49550564 Z M20.0956114,6.08646176 C19.3182142,6.3882618 18.5568174,6.631026 17.8169383,6.82247868 C16.9087795,5.2869951 15.8202028,4.08531231 14.9881836,3.28694913 C16.9689188,3.69137222 18.7350284,4.6905676 20.0956114,6.08646176 L20.0956114,6.08646176 Z M20.8674912,6.97751672 C22.0410354,8.50693119 22.779811,10.3855951 22.8962275,12.4292283 L19.5653923,12.4292283 C19.5637371,12.396124 19.5637371,12.3630198 19.5620819,12.3299156 C19.4721488,10.6570496 19.0004138,9.14639417 18.3603991,7.83105359 C19.1747626,7.60925539 20.0128509,7.32842134 20.8674912,6.97751672 L20.8674912,6.97751672 Z M22.8984344,13.5415297 C22.7880871,15.5862664 22.0542771,17.4671372 20.8851468,18.9998621 C19.9968505,18.6340606 19.1273133,18.3443987 18.2826042,18.1176349 C19.0395871,16.6086347 19.4649762,15.0814272 19.5571163,13.5415297 L22.8984344,13.5415297 L22.8984344,13.5415297 Z M5.12202579,19.0092416 C3.94903331,17.4748615 3.21246465,15.5901285 3.10156555,13.5415297 L6.44343548,13.5415297 C6.53502379,15.0703924 6.95710246,16.5876687 7.7069128,18.0861859 C6.29225959,18.4657808 5.37968689,18.8839973 5.12202579,19.0092416 L5.12202579,19.0092416 Z M8.26361526,19.096416 C9.0029426,20.3251339 9.96517161,21.5395067 11.1458884,22.7373273 C9.0989448,22.3483528 7.27324766,21.3281915 5.87900871,19.8870549 C6.30053564,19.7049817 7.12483046,19.3827674 8.26361526,19.096416 L8.26361526,19.096416 Z M3.1037725,12.4292283 C3.22074071,10.3822847 3.96172326,8.50031035 5.13912964,6.96924067 C5.41168763,7.10055404 6.28674222,7.49670107 7.62911791,7.86305432 C6.99462057,9.17122233 6.52729948,10.6713947 6.43791811,12.3326743 C6.4362629,12.3646751 6.43571117,12.3972275 6.43460769,12.4292283 L3.1037725,12.4292283 L3.1037725,12.4292283 Z M5.89887124,6.09253086 C7.26497161,4.68836065 9.04101244,3.68585485 11.0327824,3.28308697 C10.190832,4.08696752 9.08680659,5.301892 8.16982,6.85503115 C7.09779535,6.57805927 6.3148808,6.27184533 5.89887124,6.09253086 L5.89887124,6.09253086 Z M12.4441252,3.51260949 L12.4441252,7.44594129 C11.5083795,7.42332008 10.6669809,7.33614566 9.94420561,7.22303961 C9.73233867,7.18938366 9.52985126,7.15296903 9.33067427,7.11489919 C10.4159406,5.39016989 11.7235569,4.13496862 12.4441252,3.51260949 L12.4441252,3.51260949 Z M12.4441252,8.55824272 L12.4441252,12.4292283 L7.54690912,12.4292283 C7.54746086,12.419297 7.54746086,12.4099175 7.5480126,12.3999862 C7.63132486,10.8181567 8.10968068,9.38088232 8.7496954,8.13340537 C9.05866802,8.19851031 9.38253753,8.25920136 9.72351089,8.31382331 C10.5086324,8.43906756 11.4239638,8.53562151 12.4441252,8.55824272 L12.4441252,8.55824272 Z M12.4441252,13.5415297 L12.4441252,17.413067 C11.4245155,17.4362399 10.5080806,17.5316904 9.72351089,17.6563829 C9.4090209,17.706591 9.10997954,17.7628681 8.82252466,17.8224557 C8.07767995,16.4033886 7.65560128,14.9743902 7.55794386,13.5415297 L12.4441252,13.5415297 L12.4441252,13.5415297 Z M12.4441252,18.5292306 L12.4441252,22.4564933 C11.1994069,21.26419 10.1897285,20.0591968 9.41674521,18.8453758 C10.3055932,18.6804064 11.3240994,18.5584726 12.4441252,18.5292306 L12.4441252,18.5292306 Z" sketch:type="MSShapeGroup"></path>
        </g>
    </g>
</svg>

<svg width="26" height="26" xmlns="http://www.w3.org/2000/svg"><path d="M25 13c0-6.627-5.372-12-12-12C6.373 1 1 6.373 1 13c0 6.628 5.373 12 12 12 6.628 0 12-5.372 12-12zm-6.558.542c-.098 1.442-.523 2.88-1.274 4.309a20.696 20.696 0 00-3.612-.433v-3.876h4.886zm-4.886-1.113V8.552a20.641 20.641 0 003.684-.448c.645 1.254 1.128 2.7 1.212 4.294l.001.031h-4.897zm3.022 6.436c-.772 1.214-1.78 2.42-3.022 3.61v-3.944c.952.03 1.964.132 3.022.334zm1.15.256a20.3 20.3 0 012.389.771 9.904 9.904 0 01-5.241 2.841c1.167-1.188 2.119-2.394 2.853-3.612zM13.557 3.496a16.56 16.56 0 013.104 3.592c-1.1.215-2.14.32-3.104.352V3.496zm6.54 2.59c-.778.302-1.54.545-2.28.736-.907-1.535-1.996-2.737-2.828-3.535a9.904 9.904 0 015.108 2.8zm.771.892a9.857 9.857 0 012.03 5.451h-3.332l-.003-.1c-.09-1.672-.562-3.183-1.202-4.498a21.413 21.413 0 002.507-.853zm2.031 6.564A9.856 9.856 0 0120.885 19a21.4 21.4 0 00-2.602-.882c.757-1.51 1.182-3.037 1.274-4.576h3.341zM5.122 19.009a9.862 9.862 0 01-2.02-5.467h3.341c.092 1.528.514 3.046 1.264 4.544-1.415.38-2.327.798-2.585.923zm3.142.087c.739 1.23 1.701 2.444 2.882 3.641a9.903 9.903 0 01-5.267-2.85 15.87 15.87 0 012.385-.79zm-5.16-6.667a9.86 9.86 0 012.035-5.46c.273.132 1.148.528 2.49.894-.634 1.308-1.102 2.808-1.191 4.47l-.003.096H3.104zm2.795-6.336a9.905 9.905 0 015.134-2.81c-.842.804-1.946 2.019-2.863 3.572a15.793 15.793 0 01-2.271-.762zm6.545-2.58v3.933a19.206 19.206 0 01-3.113-.331c1.085-1.725 2.393-2.98 3.113-3.602zm0 5.045v3.871H7.547l.001-.029c.083-1.582.562-3.02 1.202-4.267a20.127 20.127 0 003.694.425zm0 4.984v3.871c-1.02.023-1.936.119-2.72.243-.315.05-.614.107-.901.166-.745-1.419-1.167-2.848-1.265-4.28h4.886zm0 4.987v3.927c-1.245-1.192-2.254-2.397-3.027-3.61a19.398 19.398 0 013.027-.317z" fill-rule="evenodd"/></svg>
